X: 27332
T: Mist In The Morning
R: jig
M: 6/8
K: Gmajor
|:B^AB G2 D G=AG G2 A|B^AB GDG A2 B cBA|
B^AB G2 D G=AG GA/B/c|ded dcB A2 B cBA:|
|:B2 d ded d^cd ee/f/g|B2 d dcB A2 B cBA|
B2 d ded d^cd dd/e/f|gfe dcB A2 B c2 A:|

